assets/images/ico_like_24.svg

<svg width="24" height="25" viewBox="0 0 24 25" fill="none" xmlns="http://www.w3.org/2000/svg">
<path d="M16.3002 3.30298C14.7825 3.30298 13.3322 3.90613 12.2867 4.94488L11.9831 5.24645L11.6796 4.94488C10.6003 3.87262 9.18381 3.30298 7.6661 3.30298C6.1484 3.30298 4.69815 3.90613 3.65261 4.94488C2.57336 6.01714 2 7.42448 2 8.93235C2 10.4402 2.60708 11.8811 3.65261 12.9198C3.82125 13.0874 11.3761 20.6937 11.4772 20.7942C11.6121 20.9283 11.7808 20.9953 11.9494 20.9953C12.118 20.9953 12.2867 20.9283 12.4216 20.7942C12.4216 20.7942 20.145 13.1209 20.3474 12.9198C21.4266 11.8476 22 10.4402 22 8.93235C22 7.42448 21.3929 5.98363 20.3474 4.94488C19.2344 3.87262 17.8179 3.30298 16.3002 3.30298ZM19.3693 12.0151L11.9157 19.4204C10.2293 17.7115 4.73187 12.1826 4.56324 12.0151C3.75379 11.2109 3.28162 10.1051 3.28162 8.96586C3.28162 7.82658 3.72007 6.72081 4.56324 5.91662C5.40641 5.11242 6.48567 4.6433 7.63238 4.6433C8.77909 4.6433 9.89207 5.07891 10.7015 5.91662L11.4772 6.6873C11.747 6.95537 12.1518 6.95537 12.4216 6.6873L13.1973 5.91662C14.0067 5.11242 15.1197 4.6433 16.2664 4.6433C17.4132 4.6433 18.5261 5.07891 19.3356 5.91662C20.145 6.72081 20.6172 7.82658 20.6172 8.96586C20.6509 10.1051 20.1782 11.1774 19.3693 12.0151Z" fill="black" stroke="black" stroke-width="0.5"/>
</svg>

<svg xmlns="http://www.w3.org/2000/svg" width="24" height="25" fill="none"><path fill="#000" stroke="#000" stroke-width=".5" d="M16.3 3.303a5.71 5.71 0 0 0-4.013 1.642l-.304.301-.303-.301a5.628 5.628 0 0 0-4.014-1.642 5.71 5.71 0 0 0-4.013 1.642A5.554 5.554 0 0 0 2 8.932c0 1.508.607 2.95 1.653 3.988.168.167 7.723 7.774 7.824 7.874a.668.668 0 0 0 .472.201.668.668 0 0 0 .473-.2l7.925-7.875A5.555 5.555 0 0 0 22 8.932a5.636 5.636 0 0 0-1.653-3.987A5.764 5.764 0 0 0 16.3 3.303Zm3.07 8.712-7.454 7.405a3951.676 3951.676 0 0 0-7.353-7.405 4.327 4.327 0 0 1-1.281-3.05c0-1.138.438-2.244 1.281-3.048.843-.805 1.923-1.274 3.07-1.274 1.146 0 2.26.436 3.068 1.274l.776.77c.27.268.675.268.945 0l.775-.77a4.384 4.384 0 0 1 3.07-1.274c1.146 0 2.26.436 3.069 1.274a4.327 4.327 0 0 1 1.281 3.049c.034 1.14-.439 2.211-1.248 3.05Z"/></svg>
